albertroad.htmlalbertroad.htmlalbertroad.htmlalbertroad.htmlalbertroad.htmlalbertroad.htmlalbertroad.htmlalbertroad.htmlalbertroad.htmlFrom <I>Nomos: I Won't Be Afraid Any More</I>
albertroad.htmlalbertroad.html<PRE>T:Father Francis Cameron
T:Father Francis Cameron
R:reel
D:Nomos: I Won't Be Afriad Any More
Z:Devin McCabe
M:C|
L:1/8
K:A
ABBA FEDF|EA,CE FEDF|EA A/2A/2A eA A/2A/2A|BABc d/2d/2d cB|
!ABBA FEDF|EA,CE FEDF|EA A/2A/2A dcdf|1edcB A2 A/2A/2A:|2edcB ABcd||
!eA A/2A/2A eAce|~f2df fedf|eage fedA|~B3c d2cd|
!eA A/2A/2A eAce|~f2df fedf|eage fedA|BAGB A2 (3Bcd|
!eA A/2A/2A eAce|~f2df fedf|eage fedA|~B3c d2cd|
!eA A/2A/2A a3g|effe fedf|eage fedA|BAGB A2 A/2A/2A||

%  ABC2Win Version 2.1 4/22/2001
albertroad.htmlalbertroad.htmlalbertroad.htmlalbertroad.htmlalbertroad.htmlalbertroad.htmlalbertroad.html